fs/person_sync_48_filled.svg

<svg viewBox="0 0 48 48" fill="none" xmlns="http://www.w3.org/2000/svg" height="1em" width="1em">
  <path d="M22 4C16.4772 4 12 8.47715 12 14C12 19.5228 16.4772 24 22 24C27.5228 24 32 19.5228 32 14C32 8.47715 27.5228 4 22 4ZM10.2499 28C7.90326 28 6.00002 29.9013 6 32.2489L6 33C6 36.7555 7.94167 39.5669 10.9202 41.3802C13.8491 43.1633 17.7861 44 22 44C23.1715 44 24.3216 43.9353 25.4346 43.8036C23.3022 41.488 22 38.3961 22 35C22 32.4227 22.75 30.0206 24.0437 28H10.2499ZM24 35C24 41.0751 28.9249 46 35 46C41.0751 46 46 41.0751 46 35C46 28.9249 41.0751 24 35 24C28.9249 24 24 28.9249 24 35ZM32.6472 27.9072C33.6238 27.5587 34.6658 27.4315 35.6976 27.5349C36.7294 27.6382 37.7254 27.9695 38.6136 28.5049C39.1217 28.8111 39.5873 29.1798 40 29.6011V29C40 28.4477 40.4477 28 41 28C41.5523 28 42 28.4477 42 29V32C42 32.5523 41.5523 33 41 33H38C37.4477 33 37 32.5523 37 32C37 31.4477 37.4477 31 38 31H38.5707C38.276 30.6994 37.9437 30.4363 37.5811 30.2178C36.9467 29.8354 36.2353 29.5987 35.4983 29.5249C34.7612 29.4511 34.017 29.5419 33.3194 29.7909C32.6218 30.0399 31.9882 30.4407 31.4644 30.9645C31.0739 31.355 30.4407 31.355 30.0502 30.9645C29.6597 30.5739 29.6597 29.9408 30.0502 29.5503C30.7835 28.817 31.6705 28.2558 32.6472 27.9072ZM37.353 42.0928C36.3763 42.4413 35.3344 42.5685 34.3025 42.4651C33.2707 42.3618 32.2747 42.0305 31.3866 41.4951C30.8784 41.1889 30.4129 40.8202 30.0001 40.3989V41C30.0001 41.5523 29.5524 42 29.0001 42C28.4478 42 28.0001 41.5523 28.0001 41V38C28.0001 37.4477 28.4478 37 29.0001 37H32.0001C32.5524 37 33.0001 37.4477 33.0001 38C33.0001 38.5523 32.5524 39 32.0001 39H31.4295C31.7241 39.3006 32.0564 39.5637 32.419 39.7822C33.0534 40.1646 33.7648 40.4013 34.5019 40.4751C35.2389 40.5489 35.9831 40.4581 36.6807 40.2091C37.3784 39.9601 38.0119 39.5593 38.5357 39.0355C38.9262 38.645 39.5594 38.645 39.9499 39.0355C40.3405 39.4261 40.3405 40.0592 39.9499 40.4497C39.2167 41.183 38.3296 41.7442 37.353 42.0928Z" fill="#212121"/>
</svg>

<svg viewBox="0 0 48 48" fill="none" xmlns="http://www.w3.org/2000/svg" height="1em" width="1em">
  <path d="M22 4c-5.523 0-10 4.477-10 10s4.477 10 10 10 10-4.477 10-10S27.523 4 22 4ZM10.25 28A4.25 4.25 0 0 0 6 32.249V33c0 3.755 1.942 6.567 4.92 8.38C13.85 43.163 17.786 44 22 44c1.172 0 2.322-.065 3.435-.196A12.953 12.953 0 0 1 22 35c0-2.577.75-4.98 2.044-7H10.25ZM24 35c0 6.075 4.925 11 11 11s11-4.925 11-11-4.925-11-11-11-11 4.925-11 11Zm8.647-7.093A7 7 0 0 1 40 29.601V29a1 1 0 1 1 2 0v3a1 1 0 0 1-1 1h-3a1 1 0 1 1 0-2h.57a5 5 0 0 0-7.106-.035 1 1 0 0 1-1.414-1.415 7 7 0 0 1 2.597-1.643Zm4.706 14.186A7 7 0 0 1 30 40.399V41a1 1 0 1 1-2 0v-3a1 1 0 0 1 1-1h3a1 1 0 1 1 0 2h-.57a4.996 4.996 0 0 0 5.25 1.21 5 5 0 0 0 1.856-1.175 1 1 0 0 1 1.414 1.415 7 7 0 0 1-2.597 1.643Z" fill="#212121"/>
</svg>
